img/hit.svg

<svg width="61" height="61" viewBox="0 0 61 61" fill="none" xmlns="http://www.w3.org/2000/svg">
<circle cx="30.5" cy="30.5" r="30.5" fill="white"/>
<path d="M20.9468 17.7951C20.0597 20.4036 19.2882 23.0316 18.565 25.6693C18.0088 22.8766 17.699 20.0396 17.6392 17.1916C17.6392 16.7731 15.7684 17.0845 15.7781 17.6977C15.9042 21.7798 16.4668 25.8362 17.456 29.7963C16.3084 34.2542 15.2284 38.7315 14.0037 43.1991C13.9073 43.5787 15.7202 43.3354 15.8456 42.8584C16.7135 39.6854 17.5042 36.5026 18.3046 33.3198C19.0857 36.4442 19.8957 39.5588 20.5032 42.7222C20.5997 43.2186 22.4319 42.7709 22.3644 42.216C21.5351 37.875 20.32 33.6215 19.3268 29.3291C20.3586 25.3481 21.4579 21.3867 22.779 17.4641C22.9044 17.104 21.1011 17.3181 20.9468 17.7951Z" fill="#231F20"/>
<path d="M34.8427 18.3109C34.8909 17.3376 32.9912 17.5323 32.9141 18.4277C32.9093 18.5055 32.9093 18.5835 32.9141 18.6613C32.8686 18.7222 32.8358 18.7917 32.8176 18.8657C31.7347 23.1726 30.4377 27.4217 28.9314 31.597C28.3142 33.4755 27.8321 35.3832 27.321 37.291C27.1956 30.828 27.1956 24.3943 27.1667 17.9703C27.1667 16.9969 25.2381 17.2208 25.2381 18.1065C25.2381 26.2144 25.2381 34.3028 25.5274 42.4399C25.5024 42.5356 25.5024 42.6362 25.5274 42.7319L25.5852 43.1602C25.7009 43.9973 27.5139 43.6274 27.5139 42.8584C29.0857 38.7996 29.8957 34.4975 31.2651 30.3608C31.7665 28.8424 32.2776 27.3338 32.7694 25.8251C32.7019 31.6651 32.8273 37.5051 32.9719 43.3451C32.9719 44.3185 34.4955 44.0946 34.8138 43.4035L34.8716 43.2867C34.9247 43.2077 34.9531 43.1145 34.9531 43.0191C34.9531 42.9236 34.9247 42.8304 34.8716 42.7514C34.6305 34.517 34.457 26.4188 34.8427 18.3109Z" fill="#231F20"/>
<path d="M47.3017 17.2013C44.2651 17.4901 41.2091 17.5064 38.1696 17.25C37.6874 17.25 36.0095 18.0773 36.9835 18.126C37.9575 18.1747 39.0954 18.2331 40.1465 18.272C40.05 18.3499 39.9825 18.4375 39.9922 18.5251C40.2718 26.7108 38.97 35.3054 40.1754 43.4133C40.2333 43.8221 42.104 43.4133 42.0365 42.9071C40.8504 34.8966 42.104 26.3604 41.863 18.3109C43.5801 18.3348 45.2969 18.2471 47.0028 18.0481C47.8225 17.9703 48.6132 17.0456 47.3017 17.2013Z" fill="#231F20"/>
</svg>

<svg width="61" height="61" fill="none" xmlns="http://www.w3.org/2000/svg"><circle cx="30.5" cy="30.5" r="30.5" fill="#fff"/><path d="M20.947 17.795c-.887 2.609-1.659 5.237-2.382 7.874a48.63 48.63 0 01-.926-8.477c0-.419-1.87-.108-1.86.506a57.215 57.215 0 001.677 12.098c-1.148 4.458-2.228 8.935-3.452 13.403-.097.38 1.716.136 1.842-.34.867-3.174 1.658-6.356 2.459-9.54.78 3.125 1.59 6.24 2.198 9.403.097.497 1.929.049 1.861-.506-.829-4.341-2.044-8.595-3.037-12.887 1.032-3.98 2.13-7.942 3.452-11.865.125-.36-1.678-.146-1.832.331zM34.843 18.31c.048-.972-1.852-.778-1.929.118a1.897 1.897 0 000 .233.568.568 0 00-.096.205 133.295 133.295 0 01-3.887 12.731c-.617 1.878-1.099 3.786-1.61 5.694-.125-6.463-.125-12.897-.154-19.32 0-.974-1.929-.75-1.929.136 0 8.107 0 16.196.29 24.333a.578.578 0 000 .292l.057.428c.116.837 1.929.467 1.929-.302 1.572-4.058 2.382-8.36 3.751-12.497.502-1.519 1.013-3.027 1.504-4.536-.067 5.84.058 11.68.203 17.52 0 .974 1.523.75 1.842.059l.058-.117a.48.48 0 000-.536c-.242-8.234-.415-16.332-.03-24.44zM47.302 17.201a51.09 51.09 0 01-9.132.049c-.483 0-2.16.827-1.187.876.975.049 2.112.107 3.164.146-.097.078-.164.166-.155.253.28 8.186-1.022 16.78.183 24.888.058.41 1.929 0 1.861-.506-1.186-8.01.068-16.547-.173-24.596a39.601 39.601 0 005.14-.263c.82-.078 1.61-1.002.299-.847z" fill="#231F20"/></svg>
